usr/share/icons/biglinux-icons-material-dark/22/actions/preview-render-off.svg

<svg xmlns="http://www.w3.org/2000/svg" viewBox="0 0 22 22">
  <defs id="defs3051">
    <style type="text/css" id="current-color-scheme">
      .ColorScheme-Text {
        color:#dedede;
      }
      </style>
  </defs>
 <path 
     style="fill:currentColor;fill-opacity:1;stroke:none" 
     d="M 11 3 A 8 8 0 0 0 3 11 A 8 8 0 0 0 4.3945312 15.5 L 5.1171875 14.777344 A 7 7 0 0 1 4 11 A 7 7 0 0 1 11 4 A 7 7 0 0 1 14.773438 5.1210938 L 15.494141 4.4003906 A 8 8 0 0 0 11 3 z M 18.292969 3 L 3 18.292969 L 3.7070312 19 L 19 3.7070312 L 18.292969 3 z M 17.611328 6.4960938 L 16.890625 7.2167969 A 7 7 0 0 1 16.890625 7.21875 A 7 7 0 0 1 18 11 A 7 7 0 0 1 11 18 A 7 7 0 0 1 7.2226562 16.884766 L 6.5019531 17.605469 A 8 8 0 0 0 11 19 A 8 8 0 0 0 19 11 A 8 8 0 0 0 17.611328 6.4960938 z M 11 8 L 11 8.8945312 L 11.511719 8.3828125 L 11 8 z M 13.917969 10.189453 L 11 13.107422 L 11 14 L 15 11 L 13.917969 10.189453 z "
	 class="ColorScheme-Text"
     />
 <path 
     style="fill:#d24d57"
     d="m 10,8 c -1.6568542,0 -3,1.3431458 -3,3 5.6e-4,0.524484 0.1386128,1.039657 0.4003906,1.494141 L 10,9.8945312 Z"
	 class="ColorScheme-Text"
     />
</svg>

<svg xmlns="http://www.w3.org/2000/svg" viewBox="0 0 22 22">
<defs id="defs3051">
<style id="current-color-scheme" type="text/css">
.ColorScheme-Text{color:#dedede}
</style>
</defs>
<path d="M11 3a8 8 0 0 0-8 8 8 8 0 0 0 1.395 4.5l.722-.723A7 7 0 0 1 4 11a7 7 0 0 1 7-7 7 7 0 0 1 3.773 1.121l.721-.72A8 8 0 0 0 11 3m7.293 0L3 18.293l.707.707L19 3.707zm-.682 3.496-.72.72v.003A7 7 0 0 1 18 11a7 7 0 0 1-7 7 7 7 0 0 1-3.777-1.115l-.721.72A8 8 0 0 0 11 19a8 8 0 0 0 8-8 8 8 0 0 0-1.389-4.504M11 8v.895l.512-.512zm2.918 2.19L11 13.106V14l4-3z" class="ColorScheme-Text" style="fill:currentColor;fill-opacity:1;stroke:none"/>
<path d="M10 8a3 3 0 0 0-2.6 4.494l2.6-2.6Z" class="ColorScheme-Text" style="fill:#d24d57"/>
</svg>
